src/icons/white-arena.svg

<svg width="20" height="14" viewBox="0 0 20 14" fill="none" xmlns="http://www.w3.org/2000/svg">
<path d="M4.82322 1.26754C4.89513 0.830009 5.51419 0.830009 5.5861 1.26754L6.15287 4.71588C6.19296 4.95979 6.44226 5.10587 6.67017 5.01899L9.88405 3.79395C10.2707 3.70013 10.6025 4.18139 10.2667 4.46417L7.61491 6.69758C7.42838 6.85467 7.42838 7.14532 7.61491 7.30242L10.2667 9.53582C10.6025 9.8186 10.3094 10.2999 9.88405 10.206L6.67017 8.98101C6.44226 8.89413 6.19296 9.04021 6.15287 9.28411L5.5861 12.7325C5.51419 13.17 4.89513 13.17 4.82322 12.7325L4.25646 9.28411C4.21637 9.04021 3.96707 8.89413 3.73916 8.98101L0.525283 10.206C0.116937 10.3617 -0.193162 9.8186 0.142595 9.53582L2.79442 7.30242C2.98095 7.14532 2.98095 6.85467 2.79442 6.69758L0.142597 4.46417C-0.19316 4.18139 0.116936 3.6383 0.525282 3.79395L3.73916 5.01899C3.96707 5.10587 4.21637 4.95979 4.25646 4.71588L4.82322 1.26754Z" fill="#FAF9F6"/>
<path d="M14.4139 1.26754C14.4858 0.830009 15.1049 0.830009 15.1768 1.26754L15.7435 4.71588C15.7836 4.95979 16.0329 5.10587 16.2608 5.01899L19.4747 3.79395C19.8831 3.6383 20.1932 4.18139 19.8574 4.46417L17.2056 6.69758C17.0191 6.85467 17.0191 7.14532 17.2056 7.30242L19.8574 9.53582C20.1932 9.8186 19.8831 10.3617 19.4747 10.206L16.2608 8.98101C16.0329 8.89413 15.7836 9.04021 15.7435 9.28411L15.1768 12.7325C15.1049 13.17 14.4858 13.17 14.4139 12.7325L13.8471 9.28411C13.807 9.04021 13.5577 8.89413 13.3298 8.98101L10.116 10.206C9.69062 10.2999 9.39751 9.8186 9.73327 9.53582L12.3851 7.30242C12.5716 7.14532 12.5716 6.85467 12.3851 6.69758L9.73327 4.46417C9.39751 4.18139 9.69062 3.70013 10.116 3.79395L13.3298 5.01899C13.5577 5.10587 13.807 4.95979 13.8471 4.71588L14.4139 1.26754Z" fill="#FAF9F6"/>
</svg>

<svg xmlns="http://www.w3.org/2000/svg" width="20" height="14" fill="none"><path fill="#FAF9F6" d="M4.823 1.268c.072-.438.691-.438.763 0l.567 3.448c.04.244.29.39.517.303l3.214-1.225c.387-.094.718.387.383.67L7.615 6.698a.397.397 0 0 0 0 .604l2.652 2.234c.335.283.042.764-.383.67L6.67 8.981a.386.386 0 0 0-.517.303l-.567 3.448c-.072.438-.69.438-.763 0l-.567-3.448a.386.386 0 0 0-.517-.303L.525 10.206c-.408.156-.718-.387-.382-.67l2.651-2.234a.397.397 0 0 0 0-.604L.143 4.464c-.336-.283-.026-.826.382-.67L3.74 5.019a.386.386 0 0 0 .517-.303l.567-3.448Z"/><path fill="#FAF9F6" d="M14.414 1.268c.072-.438.69-.438.763 0l.566 3.448c.04.244.29.39.518.303l3.214-1.225c.408-.156.718.387.382.67l-2.651 2.234a.397.397 0 0 0 0 .604l2.651 2.234c.336.283.026.826-.382.67L16.26 8.981a.386.386 0 0 0-.518.303l-.566 3.448c-.072.438-.691.438-.763 0l-.567-3.448a.386.386 0 0 0-.517-.303l-3.214 1.225c-.425.094-.718-.387-.383-.67l2.652-2.234a.397.397 0 0 0 0-.604L9.733 4.464c-.335-.283-.042-.764.383-.67l3.214 1.225a.386.386 0 0 0 .517-.303l.567-3.448Z"/></svg>
